img/icons/Reading.svg

<svg width="44" height="45" viewBox="0 0 44 45" fill="none" xmlns="http://www.w3.org/2000/svg">
<path d="M15.3477 0C12.009 0 9.97734 1.95313 5.02539 1.95313C4.45938 1.95313 4 2.39063 4 2.92969V23.4063C9.75723 23.6908 11.7909 21.4844 15.3477 21.4844C17.2542 21.4844 19.0849 22.6374 20.4746 23.8711V2.38542C19.0213 1.10417 17.2118 0 15.3477 0ZM16.373 16.6016H8.16992C7.60391 16.6016 7.14453 16.1641 7.14453 15.625C7.14453 15.0859 7.60391 14.6484 8.16992 14.6484H16.373C16.9391 14.6484 17.3984 15.0859 17.3984 15.625C17.3984 16.1641 16.9391 16.6016 16.373 16.6016ZM16.373 12.6953H8.16992C7.60391 12.6953 7.14453 12.2578 7.14453 11.7188C7.14453 11.1797 7.60391 10.7422 8.16992 10.7422H16.373C16.9391 10.7422 17.3984 11.1797 17.3984 11.7188C17.3984 12.2578 16.9391 12.6953 16.373 12.6953ZM16.373 8.78906H8.16992C7.60391 8.78906 7.14453 8.35156 7.14453 7.8125C7.14453 7.27344 7.60391 6.83594 8.16992 6.83594H16.373C16.9391 6.83594 17.3984 7.27344 17.3984 7.8125C17.3984 8.35156 16.9391 8.78906 16.373 8.78906ZM15.3477 23.4375C12.385 23.4375 9.9876 25.6517 4 25.3704V26.3672C4 26.9063 4.45938 27.3438 5.02539 27.3438H20.4746V26.7044C19.5333 25.6035 17.2822 23.4375 15.3477 23.4375ZM27.6523 23.4375C25.7103 23.4375 23.4633 25.6029 22.5254 26.7038V27.3438H37.9746C38.5406 27.3438 39 26.9063 39 26.3672V25.3672C32.9934 25.6475 30.6174 23.4375 27.6523 23.4375ZM37.9746 1.95313C33.022 1.95313 30.9924 0 27.6523 0C25.7889 0 23.9801 1.10286 22.5254 2.38542V23.8711C23.9155 22.6373 25.746 21.4844 27.6523 21.4844C31.2193 21.4844 33.2817 23.7064 39 23.4128V2.92969C39 2.39063 38.5406 1.95313 37.9746 1.95313ZM34.8301 16.6016H26.627C26.0609 16.6016 25.6016 16.1641 25.6016 15.625C25.6016 15.0859 26.0609 14.6484 26.627 14.6484H34.8301C35.3961 14.6484 35.8555 15.0859 35.8555 15.625C35.8555 16.1641 35.3961 16.6016 34.8301 16.6016ZM34.8301 12.6953H26.627C26.0609 12.6953 25.6016 12.2578 25.6016 11.7188C25.6016 11.1797 26.0609 10.7422 26.627 10.7422H34.8301C35.3961 10.7422 35.8555 11.1797 35.8555 11.7188C35.8555 12.2578 35.3961 12.6953 34.8301 12.6953ZM34.8301 8.78906H26.627C26.0609 8.78906 25.6016 8.35156 25.6016 7.8125C25.6016 7.27344 26.0609 6.83594 26.627 6.83594H34.8301C35.3961 6.83594 35.8555 7.27344 35.8555 7.8125C35.8555 8.35156 35.3961 8.78906 34.8301 8.78906Z" fill="#E5E5E5"/>
<path d="M5.29 40L3.94 38.05H3.86H2.45V40H0.83V33H3.86C4.48 33 5.01667 33.1033 5.47 33.31C5.93 33.5167 6.28333 33.81 6.53 34.19C6.77667 34.57 6.9 35.02 6.9 35.54C6.9 36.06 6.77333 36.51 6.52 36.89C6.27333 37.2633 5.92 37.55 5.46 37.75L7.03 40H5.29ZM5.26 35.54C5.26 35.1467 5.13333 34.8467 4.88 34.64C4.62667 34.4267 4.25667 34.32 3.77 34.32H2.45V36.76H3.77C4.25667 36.76 4.62667 36.6533 4.88 36.44C5.13333 36.2267 5.26 35.9267 5.26 35.54ZM13.3435 37.33C13.3435 37.35 13.3335 37.49 13.3135 37.75H9.24352C9.31685 38.0833 9.49018 38.3467 9.76352 38.54C10.0368 38.7333 10.3768 38.83 10.7835 38.83C11.0635 38.83 11.3102 38.79 11.5235 38.71C11.7435 38.6233 11.9468 38.49 12.1335 38.31L12.9635 39.21C12.4568 39.79 11.7168 40.08 10.7435 40.08C10.1368 40.08 9.60018 39.9633 9.13352 39.73C8.66685 39.49 8.30685 39.16 8.05352 38.74C7.80018 38.32 7.67352 37.8433 7.67352 37.31C7.67352 36.7833 7.79685 36.31 8.04352 35.89C8.29685 35.4633 8.64018 35.1333 9.07352 34.9C9.51352 34.66 10.0035 34.54 10.5435 34.54C11.0702 34.54 11.5468 34.6533 11.9735 34.88C12.4002 35.1067 12.7335 35.4333 12.9735 35.86C13.2202 36.28 13.3435 36.77 13.3435 37.33ZM10.5535 35.72C10.2002 35.72 9.90352 35.82 9.66352 36.02C9.42352 36.22 9.27685 36.4933 9.22352 36.84H11.8735C11.8202 36.5 11.6735 36.23 11.4335 36.03C11.1935 35.8233 10.9002 35.72 10.5535 35.72ZM16.4056 34.54C17.239 34.54 17.879 34.74 18.3256 35.14C18.7723 35.5333 18.9956 36.13 18.9956 36.93V40H17.5356V39.33C17.2423 39.83 16.6956 40.08 15.8956 40.08C15.4823 40.08 15.1223 40.01 14.8156 39.87C14.5156 39.73 14.2856 39.5367 14.1256 39.29C13.9656 39.0433 13.8856 38.7633 13.8856 38.45C13.8856 37.95 14.0723 37.5567 14.4456 37.27C14.8256 36.9833 15.409 36.84 16.1956 36.84H17.4356C17.4356 36.5 17.3323 36.24 17.1256 36.06C16.919 35.8733 16.609 35.78 16.1956 35.78C15.909 35.78 15.6256 35.8267 15.3456 35.92C15.0723 36.0067 14.839 36.1267 14.6456 36.28L14.0856 35.19C14.379 34.9833 14.729 34.8233 15.1356 34.71C15.549 34.5967 15.9723 34.54 16.4056 34.54ZM16.2856 39.03C16.5523 39.03 16.789 38.97 16.9956 38.85C17.2023 38.7233 17.349 38.54 17.4356 38.3V37.75H16.3656C15.7256 37.75 15.4056 37.96 15.4056 38.38C15.4056 38.58 15.4823 38.74 15.6356 38.86C15.7956 38.9733 16.0123 39.03 16.2856 39.03ZM25.9461 32.58V40H24.4561V39.38C24.0694 39.8467 23.5094 40.08 22.7761 40.08C22.2694 40.08 21.8094 39.9667 21.3961 39.74C20.9894 39.5133 20.6694 39.19 20.4361 38.77C20.2028 38.35 20.0861 37.8633 20.0861 37.31C20.0861 36.7567 20.2028 36.27 20.4361 35.85C20.6694 35.43 20.9894 35.1067 21.3961 34.88C21.8094 34.6533 22.2694 34.54 22.7761 34.54C23.4628 34.54 23.9994 34.7567 24.3861 35.19V32.58H25.9461ZM23.0461 38.8C23.4394 38.8 23.7661 38.6667 24.0261 38.4C24.2861 38.1267 24.4161 37.7633 24.4161 37.31C24.4161 36.8567 24.2861 36.4967 24.0261 36.23C23.7661 35.9567 23.4394 35.82 23.0461 35.82C22.6461 35.82 22.3161 35.9567 22.0561 36.23C21.7961 36.4967 21.6661 36.8567 21.6661 37.31C21.6661 37.7633 21.7961 38.1267 22.0561 38.4C22.3161 38.6667 22.6461 38.8 23.0461 38.8ZM27.3899 34.62H28.9499V40H27.3899V34.62ZM28.1699 33.87C27.8833 33.87 27.6499 33.7867 27.4699 33.62C27.2899 33.4533 27.1999 33.2467 27.1999 33C27.1999 32.7533 27.2899 32.5467 27.4699 32.38C27.6499 32.2133 27.8833 32.13 28.1699 32.13C28.4566 32.13 28.6899 32.21 28.8699 32.37C29.0499 32.53 29.1399 32.73 29.1399 32.97C29.1399 33.23 29.0499 33.4467 28.8699 33.62C28.6899 33.7867 28.4566 33.87 28.1699 33.87ZM33.6677 34.54C34.3344 34.54 34.8711 34.74 35.2777 35.14C35.6911 35.54 35.8977 36.1333 35.8977 36.92V40H34.3377V37.16C34.3377 36.7333 34.2444 36.4167 34.0577 36.21C33.8711 35.9967 33.6011 35.89 33.2477 35.89C32.8544 35.89 32.5411 36.0133 32.3077 36.26C32.0744 36.5 31.9577 36.86 31.9577 37.34V40H30.3977V34.62H31.8877V35.25C32.0944 35.0233 32.3511 34.85 32.6577 34.73C32.9644 34.6033 33.3011 34.54 33.6677 34.54ZM42.9204 34.62V39.1C42.9204 40.0867 42.6637 40.82 42.1504 41.3C41.6371 41.78 40.8871 42.02 39.9004 42.02C39.3804 42.02 38.8871 41.9567 38.4204 41.83C37.9537 41.7033 37.5671 41.52 37.2604 41.28L37.8804 40.16C38.1071 40.3467 38.3937 40.4933 38.7404 40.6C39.0871 40.7133 39.4337 40.77 39.7804 40.77C40.3204 40.77 40.7171 40.6467 40.9704 40.4C41.2304 40.16 41.3604 39.7933 41.3604 39.3V39.07C40.9537 39.5167 40.3871 39.74 39.6604 39.74C39.1671 39.74 38.7137 39.6333 38.3004 39.42C37.8937 39.2 37.5704 38.8933 37.3304 38.5C37.0904 38.1067 36.9704 37.6533 36.9704 37.14C36.9704 36.6267 37.0904 36.1733 37.3304 35.78C37.5704 35.3867 37.8937 35.0833 38.3004 34.87C38.7137 34.65 39.1671 34.54 39.6604 34.54C40.4404 34.54 41.0337 34.7967 41.4404 35.31V34.62H42.9204ZM39.9704 38.46C40.3837 38.46 40.7204 38.34 40.9804 38.1C41.2471 37.8533 41.3804 37.5333 41.3804 37.14C41.3804 36.7467 41.2471 36.43 40.9804 36.19C40.7204 35.9433 40.3837 35.82 39.9704 35.82C39.5571 35.82 39.2171 35.9433 38.9504 36.19C38.6837 36.43 38.5504 36.7467 38.5504 37.14C38.5504 37.5333 38.6837 37.8533 38.9504 38.1C39.2171 38.34 39.5571 38.46 39.9704 38.46Z" fill="#E5E5E5"/>
</svg>

<svg width="44" height="45" fill="none" xmlns="http://www.w3.org/2000/svg"><path d="M15.348 0c-3.339 0-5.37 1.953-10.323 1.953C4.46 1.953 4 2.391 4 2.93v20.476c5.757.285 7.79-1.922 11.348-1.922 1.906 0 3.737 1.153 5.127 2.387V2.385C19.02 1.105 17.212 0 15.348 0zm1.025 16.602H8.17c-.566 0-1.025-.438-1.025-.977 0-.54.459-.977 1.025-.977h8.203c.566 0 1.025.438 1.025.977 0 .54-.459.977-1.025.977zm0-3.907H8.17c-.566 0-1.025-.437-1.025-.976 0-.54.459-.977 1.025-.977h8.203c.566 0 1.025.438 1.025.977 0 .539-.459.976-1.025.976zm0-3.906H8.17c-.566 0-1.025-.437-1.025-.976 0-.54.459-.977 1.025-.977h8.203c.566 0 1.025.437 1.025.976 0 .54-.459.977-1.025.977zm-1.025 14.649c-2.963 0-5.36 2.214-11.348 1.932v.997c0 .54.46.977 1.025.977h15.45v-.64c-.942-1.1-3.193-3.267-5.127-3.267zm12.304 0c-1.942 0-4.189 2.165-5.127 3.266v.64h15.45c.566 0 1.025-.438 1.025-.977v-1c-6.007.28-8.383-1.93-11.348-1.93zM37.975 1.953C33.022 1.953 30.992 0 27.652 0c-1.863 0-3.672 1.103-5.127 2.385v21.486c1.39-1.234 3.221-2.387 5.127-2.387 3.567 0 5.63 2.222 11.348 1.929V2.93c0-.54-.46-.977-1.025-.977zM34.83 16.602h-8.203c-.566 0-1.025-.438-1.025-.977 0-.54.459-.977 1.025-.977h8.203c.566 0 1.026.438 1.026.977 0 .54-.46.977-1.026.977zm0-3.907h-8.203c-.566 0-1.025-.437-1.025-.976 0-.54.459-.977 1.025-.977h8.203c.566 0 1.026.438 1.026.977 0 .539-.46.976-1.026.976zm0-3.906h-8.203c-.566 0-1.025-.437-1.025-.976 0-.54.459-.977 1.025-.977h8.203c.566 0 1.026.437 1.026.976 0 .54-.46.977-1.026.977zM5.29 40l-1.35-1.95H2.45V40H.83v-7h3.03c.62 0 1.157.103 1.61.31.46.207.813.5 1.06.88.247.38.37.83.37 1.35 0 .52-.127.97-.38 1.35-.247.373-.6.66-1.06.86L7.03 40H5.29zm-.03-4.46c0-.393-.127-.693-.38-.9-.253-.213-.623-.32-1.11-.32H2.45v2.44h1.32c.487 0 .857-.107 1.11-.32.253-.213.38-.513.38-.9zm8.084 1.79c0 .02-.01.16-.03.42h-4.07c.073.333.246.597.52.79.273.193.613.29 1.02.29.28 0 .526-.04.74-.12.22-.087.423-.22.61-.4l.83.9c-.507.58-1.247.87-2.22.87-.607 0-1.144-.117-1.61-.35a2.636 2.636 0 01-1.08-.99 2.714 2.714 0 01-.38-1.43c0-.527.123-1 .37-1.42a2.625 2.625 0 011.03-.99c.44-.24.93-.36 1.47-.36a3 3 0 011.43.34c.426.227.76.553 1 .98.246.42.37.91.37 1.47zm-2.79-1.61c-.354 0-.65.1-.89.3-.24.2-.387.473-.44.82h2.65a1.27 1.27 0 00-.44-.81 1.302 1.302 0 00-.88-.31zm5.852-1.18c.833 0 1.473.2 1.92.6.446.393.67.99.67 1.79V40h-1.46v-.67c-.294.5-.84.75-1.64.75a2.58 2.58 0 01-1.08-.21c-.3-.14-.53-.333-.69-.58a1.51 1.51 0 01-.24-.84c0-.5.186-.893.56-1.18.38-.287.963-.43 1.75-.43h1.24c0-.34-.104-.6-.31-.78-.207-.187-.517-.28-.93-.28-.287 0-.57.047-.85.14a2.171 2.171 0 00-.7.36l-.56-1.09a3.385 3.385 0 011.05-.48 4.79 4.79 0 011.27-.17zm-.12 4.49c.266 0 .503-.06.71-.18.206-.127.353-.31.44-.55v-.55h-1.07c-.64 0-.96.21-.96.63 0 .2.076.36.23.48.16.113.376.17.65.17zm9.66-6.45V40h-1.49v-.62c-.387.467-.947.7-1.68.7-.507 0-.967-.113-1.38-.34a2.443 2.443 0 01-.96-.97c-.233-.42-.35-.907-.35-1.46 0-.553.117-1.04.35-1.46.233-.42.553-.743.96-.97.413-.227.873-.34 1.38-.34.687 0 1.223.217 1.61.65v-2.61h1.56zm-2.9 6.22c.393 0 .72-.133.98-.4.26-.273.39-.637.39-1.09 0-.453-.13-.813-.39-1.08a1.296 1.296 0 00-.98-.41c-.4 0-.73.137-.99.41-.26.267-.39.627-.39 1.08 0 .453.13.817.39 1.09.26.267.59.4.99.4zm4.344-4.18h1.56V40h-1.56v-5.38zm.78-.75c-.287 0-.52-.083-.7-.25a.81.81 0 01-.27-.62.81.81 0 01.27-.62c.18-.167.413-.25.7-.25s.52.08.7.24c.18.16.27.36.27.6 0 .26-.09.477-.27.65-.18.167-.413.25-.7.25zm5.498.67c.666 0 1.203.2 1.61.6.413.4.62.993.62 1.78V40h-1.56v-2.84c0-.427-.094-.743-.28-.95-.187-.213-.457-.32-.81-.32-.394 0-.707.123-.94.37-.234.24-.35.6-.35 1.08V40h-1.56v-5.38h1.49v.63c.206-.227.463-.4.77-.52a2.62 2.62 0 011.01-.19zm9.252.08v4.48c0 .987-.256 1.72-.77 2.2-.513.48-1.263.72-2.25.72-.52 0-1.013-.063-1.48-.19-.466-.127-.853-.31-1.16-.55l.62-1.12c.227.187.514.333.86.44.347.113.694.17 1.04.17.54 0 .937-.123 1.19-.37.26-.24.39-.607.39-1.1v-.23c-.406.447-.973.67-1.7.67-.493 0-.946-.107-1.36-.32a2.523 2.523 0 01-.97-.92 2.558 2.558 0 01-.36-1.36c0-.513.12-.967.36-1.36a2.45 2.45 0 01.97-.91c.414-.22.867-.33 1.36-.33.78 0 1.374.257 1.78.77v-.69h1.48zm-2.95 3.84c.414 0 .75-.12 1.01-.36.267-.247.4-.567.4-.96s-.133-.71-.4-.95c-.26-.247-.596-.37-1.01-.37-.413 0-.753.123-1.02.37-.266.24-.4.557-.4.95 0 .393.134.713.4.96.267.24.607.36 1.02.36z" fill="#E5E5E5"/></svg>
